X:209 
T:Master's Drowsy Maggie (reel), The  
F:file ID: cre.4/209mas_dm
B:CRE4.143 (MeaigÃÂÃÂÃÂÃÂ­ ShÃÂÃÂÃÂÃÂ¡mhÃÂÃÂÃÂÃÂ¡nta)
N:"The master" = Michael McDermott (Tyrone fiddler, d.1947)
L:1/8
Q:180
M:4/4
R:reel
K:Em
E2BE dEBE|E2Bc dAFD|E2BE dEBB|BABc dAFD|
"5"E2 BE dEBE|E2 Bc dAFD|E2 BE dEBB|BABc dAFA ||
K:D
"9"d2 fd c2 ec|d2 fd faaf|d2 fd c2 ec|BABc dAFA|
"13"d2 fd c2 ec|d2 fd fa a2|(3bag af gfed|BABc dAFA ||
"17"dBfB dBfB|cAeA cAeA|dBfB B2 fB|defg aecA|
"21"dBfB B2 fB|cAeA cAeA|(3bcd (3efg aceA|B2 Bc dAFA ||
"25"dffe dfBf|ce e2 ceAe|dffe defg|agfg aece|
"29"dffe dfBf|ce e2 ceAe|afge fded|BABc dAFD |\
"last time"E8|]

%%%

